icons/Mastodon-Light.svg

<svg width="256" height="256" viewBox="0 0 256 256" fill="none" xmlns="http://www.w3.org/2000/svg">
<rect width="256" height="256" rx="60" fill="#F4F2ED"/>
<path d="M218.324 148.035C215.556 162.042 193.529 177.371 168.231 180.341C155.039 181.889 142.05 183.312 128.2 182.687C105.55 181.667 87.6776 177.371 87.6776 177.371C87.6776 179.539 87.8136 181.604 88.0855 183.535C91.0302 205.518 110.251 206.835 128.457 207.449C146.833 208.067 163.196 202.993 163.196 202.993L163.951 219.331C163.951 219.331 151.098 226.119 128.2 227.367C115.574 228.049 99.8969 227.055 81.637 222.302C42.0344 211.993 35.2236 170.478 34.1815 128.354C33.8639 115.847 34.0597 104.054 34.0597 94.1905C34.0597 51.1167 62.7571 38.4911 62.7571 38.4911C77.227 31.9558 102.056 29.2075 127.869 29H128.503C154.315 29.2075 179.161 31.9558 193.63 38.4911C193.63 38.4911 222.326 51.1167 222.326 94.1905C222.326 94.1905 222.686 125.971 218.324 148.035Z" fill="#2B90D9"/>
<path d="M188.477 97.5321V149.687H167.466V99.0651C167.466 88.394 162.9 82.9776 153.768 82.9776C143.671 82.9776 138.611 89.4028 138.611 102.108V129.816H117.724V102.108C117.724 89.4028 112.662 82.9776 102.565 82.9776C93.4331 82.9776 88.8676 88.394 88.8676 99.0651V149.687H67.8567V97.5321C67.8567 86.8727 70.6165 78.4022 76.1599 72.1354C81.8763 65.8686 89.3626 62.656 98.6557 62.656C109.408 62.656 117.55 66.7201 122.933 74.8494L128.167 83.4772L133.401 74.8494C138.784 66.7201 146.926 62.656 157.679 62.656C166.971 62.656 174.457 65.8686 180.175 72.1354C185.717 78.4022 188.477 86.8727 188.477 97.5321Z" fill="white"/>
</svg>

<svg xmlns="http://www.w3.org/2000/svg" width="256" height="256" fill="none" viewBox="0 0 256 256"><rect width="256" height="256" fill="#F4F2ED" rx="60"/><path fill="#2B90D9" d="M218.32 148.04c-2.76 14-24.8 29.33-50.09 32.3-13.2 1.55-26.18 2.97-40.03 2.35a239 239 0 0 1-40.52-5.32q0 3.26.4 6.16c2.95 21.99 22.17 23.3 40.38 23.92 18.37.62 34.74-4.46 34.74-4.46l.75 16.34s-12.85 6.79-35.75 8.04c-12.63.68-28.3-.31-46.56-5.07-39.6-10.3-46.42-51.82-47.46-93.95-.32-12.5-.12-24.3-.12-34.16 0-43.07 28.7-55.7 28.7-55.7 14.47-6.53 39.3-9.28 65.1-9.49h.64c25.82.2 50.66 2.96 65.13 9.5 0 0 28.7 12.62 28.7 55.69 0 0 .36 31.78-4 53.85"/><path fill="#fff" d="M188.48 97.53v52.16h-21.01V99.07c0-10.68-4.57-16.1-13.7-16.1-10.1 0-15.16 6.43-15.16 19.14v27.7h-20.89v-27.7c0-12.7-5.06-19.13-15.15-19.13-9.14 0-13.7 5.41-13.7 16.09v50.62H67.86V97.53q0-16 8.3-25.4c5.72-6.26 13.2-9.47 22.5-9.47 10.75 0 18.89 4.06 24.27 12.19l5.24 8.63 5.23-8.63c5.38-8.13 13.53-12.2 24.28-12.2 9.3 0 16.78 3.22 22.5 9.49q8.3 9.4 8.3 25.4"/></svg>
